X:142
T:Jolly Young Waterman. WM.142
M:6/8
L:1/8
Q:3/8=110
S:Wm.Mittell’s MS, New Romney,Kent,1799
R:.Jig
O:England
A:Kent
N:Missing from photocopy, reinserted from Dave Roberts,probably in wrong
N:order
Z:vmp.Chris Partington
K:G
B/c/|dec BcA|GFG AFD|DED DFA|BcBA2B/c/|!
dec BcA|GFG AFD|DEFG2c|BcAG2:|!
|:G| G2de2G|G2B dBG|EFG ABc|BAG FED|!
G2de2G|G2B dBG|G2e dec|BcAG2:|

